X: 31741
T: Pat McKenna's
R: jig
M: 6/8
K: Fdorian
|:F3 FEC|F2F Ace|fec cBG|eBG BGE|
F3 FEC|F2F Ace|fec cBG|eBG F3:|
|:fgf fec|c'bg fec|B3 EGB|eBG BGE|
FCF FCF|EB,E EB,E|c3 eBG|BGE F3:|

